X:0
T: Jacky Layton (fragment)
C: 
M: C
K: G
L: 1/16
| GABc dgfg Ggfg Bgfg | GABc dgfg d4 B3A | \
GABc dgfg Ggfg Bgfg | a3AA2B2 c3e dcBA |
| GABc dgfg Ggfg Bgfg | GABc edcB g3e d2B2 | \
cdec defd efgd BcdB | e2A2A2B2 c3e dcBA |]
